teeny/outline/unlock-small.svg

<svg width="15" height="15" viewBox="0 0 15 15" fill="none" xmlns="http://www.w3.org/2000/svg">
<path d="M9.12132 4.12132L9.47487 3.76777V3.76777L9.12132 4.12132ZM5.5 7H9.5V6H5.5V7ZM10 7.5V10.5H11V7.5H10ZM9.5 11H5.5V12H9.5V11ZM5 10.5V7.5H4V10.5H5ZM5.5 11C5.22386 11 5 10.7761 5 10.5H4C4 11.3284 4.67157 12 5.5 12V11ZM10 10.5C10 10.7761 9.77614 11 9.5 11V12C10.3284 12 11 11.3284 11 10.5H10ZM9.5 7C9.77614 7 10 7.22386 10 7.5H11C11 6.67157 10.3284 6 9.5 6V7ZM5.5 6C4.67157 6 4 6.67157 4 7.5H5C5 7.22386 5.22386 7 5.5 7V6ZM6 6.5V5.62132H5V6.5H6ZM8.76777 4.47487L9.14645 4.85355L9.85355 4.14645L9.47487 3.76777L8.76777 4.47487ZM7.62132 4C8.05132 4 8.46371 4.17082 8.76777 4.47487L9.47487 3.76777C8.98328 3.27617 8.31654 3 7.62132 3V4ZM6 5.62132C6 4.72589 6.72589 4 7.62132 4V3C6.17361 3 5 4.17361 5 5.62132H6Z" fill="black"/>
</svg>

<svg viewBox="0 0 15 15" xmlns="http://www.w3.org/2000/svg"><path d="M9.12 4.12l.35-.36v0l-.36.35ZM5.49 6.99h4v-1h-4v1Zm4.5.5v3h1v-3h-1Zm-.5 3.5h-4v1h4v-1Zm-4.5-.5v-3h-1v3h1Zm.5.5c-.28 0-.5-.23-.5-.5h-1c0 .82.67 1.5 1.5 1.5v-1Zm4.5-.5c0 .27-.23.5-.5.5v1c.82 0 1.5-.68 1.5-1.5h-1Zm-.5-3.5c.27 0 .5.22.5.5h1c0-.83-.68-1.5-1.5-1.5v1Zm-4-1c-.83 0-1.5.67-1.5 1.5h1c0-.28.22-.5.5-.5v-1Zm.5.5v-.88h-1v.87h1Zm2.76-2.03l.37.37 .7-.71 -.38-.38 -.71.7ZM7.6 3.98c.43 0 .84.17 1.14.47l.7-.71c-.5-.5-1.16-.77-1.86-.77v1ZM5.97 5.6c0-.9.72-1.63 1.62-1.63v-1c-1.45 0-2.63 1.17-2.63 2.62h1Z"/></svg>
